logos/teamwork-icon.svg

<?xml version="1.0" encoding="UTF-8"?>
<svg width="256px" height="256px" viewBox="0 0 256 256" version="1.1" xmlns="http://www.w3.org/2000/svg" xmlns:xlink="http://www.w3.org/1999/xlink" preserveAspectRatio="xMidYMid">
    <g>
            <path d="M128,0 L128,0 C198.776471,0 256,57.2235294 256,128 L256,128 C256,198.776471 198.776471,256.000602 128,256.000602 L128,256.000602 C57.2235294,256.215126 0,198.776471 0,128 L0,128 C0,57.2235294 57.2235294,0 128,0 Z" fill="#FFFFFF"></path>
            <path d="M126.278992,112.080672 C133.378151,112.080672 137.465546,108.208403 137.465546,101.539496 C137.680672,95.9462185 133.378151,91.2134454 127.784874,90.9983193 C127.354622,90.9983193 126.92437,90.9983193 126.709244,90.9983193 L110.57479,90.9983193 L110.57479,79.1663866 C111.005042,72.497479 105.842017,66.4739496 98.9579832,66.2588235 C92.2890756,65.8285714 86.2655462,70.9915966 86.0504202,77.8756303 C86.0504202,78.3058824 86.0504202,78.9512605 86.0504202,79.3815126 L86.0504202,161.559664 C86.0504202,181.351261 94.010084,190.171429 111.65042,190.171429 C118.319328,190.386555 124.988235,188.665546 130.796639,185.438655 C133.593277,183.717647 135.314286,180.490756 135.09916,177.263866 C135.09916,171.885714 131.442017,166.077311 126.494118,166.077311 C125.848739,166.077311 124.988235,166.292437 124.342857,166.507563 L123.482353,166.937815 C121.761345,167.798319 119.610084,168.443697 117.67395,168.443697 C114.447059,168.443697 110.789916,167.368067 110.789916,158.547899 L110.789916,112.080672 L126.278992,112.080672 Z" fill="#1D1C39"></path>
            <path d="M178.984874,146.715966 C167.152941,146.715966 157.472269,156.396639 157.472269,168.228571 C157.472269,180.060504 167.152941,189.741176 178.984874,189.741176 C190.816807,189.741176 200.497479,180.060504 200.497479,168.228571 C200.497479,156.396639 190.816807,146.715966 178.984874,146.715966" fill="#FF22B1"></path>
    </g>
</svg>

<svg preserveAspectRatio="xMidYMid" viewBox="0 0 256 256" xmlns="http://www.w3.org/2000/svg">
  <path fill="#FFF" d="M128 0c70.776 0 128 57.224 128 128 0 70.776-57.224 128-128 128-70.776.215-128-57.224-128-128C0 57.224 57.224 0 128 0Z"/>
  <path fill="#1D1C39" d="M126.279 112.08c7.1 0 11.187-3.872 11.187-10.54.215-5.594-4.088-10.327-9.681-10.542h-17.21V79.166c.43-6.669-4.733-12.692-11.617-12.907-6.669-.43-12.692 4.733-12.908 11.617v83.684c0 19.791 7.96 28.611 25.6 28.611 6.67.216 13.338-1.505 19.147-4.732 2.796-1.721 4.517-4.948 4.302-8.175 0-5.378-3.657-11.187-8.605-11.187-.645 0-1.506.215-2.151.43l-.86.43c-1.722.861-3.873 1.507-5.809 1.507-3.227 0-6.884-1.076-6.884-9.896V112.08h15.489Z"/>
  <path fill="#FF22B1" d="M178.985 146.716c-11.832 0-21.513 9.68-21.513 21.513 0 11.832 9.68 21.512 21.513 21.512 11.832 0 21.512-9.68 21.512-21.512s-9.68-21.513-21.512-21.513"/>
</svg>
